X:1
T: Braes aboon Bonaw
C:
R:Strathspey
Q:128
K:D
M:4/4
L:1/16
|:D3F A3B AF3 Ad3|D3F A3F E4 EF3|D3F A3B d3e f3d|d3B dF3 E4 EF3|
D3F A3B AF3 Ad3|D3F A3F E4 EF3|D3F A3B d3e f3d|d3B dF3 E4 EF3|
d3e f3e dA3 FA3|d3e f3A B4 Be3|d3e f3e ef3 d3A|Bd3 A3F E4 EF3|
d3e f3e dA3 FA3|d3e f3A B4 Be3|d3e f3e ef3 d3A|Bd3 A3F E4 Ed3:|
